icons/icon.svg

<?xml version="1.0" encoding="UTF-8" standalone="no"?>
<!-- Created with Inkscape (http://www.inkscape.org/) -->

<svg
   xmlns:dc="http://purl.org/dc/elements/1.1/"
   xmlns:cc="http://creativecommons.org/ns#"
   xmlns:rdf="http://www.w3.org/1999/02/22-rdf-syntax-ns#"
   xmlns:svg="http://www.w3.org/2000/svg"
   xmlns="http://www.w3.org/2000/svg"
   xmlns:xlink="http://www.w3.org/1999/xlink"
   xmlns:sodipodi="http://sodipodi.sourceforge.net/DTD/sodipodi-0.dtd"
   xmlns:inkscape="http://www.inkscape.org/namespaces/inkscape"
   width="512"
   height="512"
   viewBox="0 0 135.46667 135.46667"
   version="1.1"
   id="svg8"
   inkscape:version="0.92.0 r"
   sodipodi:docname="icon.svg"
   inkscape:export-filename="/home/kirpal/www/cascade/icons/icon.png"
   inkscape:export-xdpi="192"
   inkscape:export-ydpi="192">
  <defs
     id="defs2">
    <linearGradient
       inkscape:collect="always"
       id="linearGradient5462">
      <stop
         style="stop-color:#ff2a2a;stop-opacity:1"
         offset="0"
         id="stop5458" />
      <stop
         style="stop-color:#ff1b1b;stop-opacity:1"
         offset="1"
         id="stop5460" />
    </linearGradient>
    <linearGradient
       inkscape:collect="always"
       xlink:href="#linearGradient5462"
       id="linearGradient5812"
       gradientUnits="userSpaceOnUse"
       gradientTransform="matrix(-0.67463212,0.67463212,-0.74796176,-0.74796176,1419.7774,1401.6891)"
       x1="11.238299"
       y1="1137.9171"
       x2="7.4305501"
       y2="1778.3324" />
  </defs>
  <sodipodi:namedview
     id="base"
     pagecolor="#ffffff"
     bordercolor="#666666"
     borderopacity="1.0"
     inkscape:pageopacity="0.0"
     inkscape:pageshadow="2"
     inkscape:zoom="0.5"
     inkscape:cx="57.338281"
     inkscape:cy="414.20104"
     inkscape:document-units="px"
     inkscape:current-layer="layer1"
     showgrid="false"
     units="px"
     fit-margin-top="0"
     fit-margin-left="0"
     fit-margin-right="0"
     fit-margin-bottom="0"
     inkscape:window-width="1892"
     inkscape:window-height="1028"
     inkscape:window-x="1454"
     inkscape:window-y="14"
     inkscape:window-maximized="0" />
  <metadata
     id="metadata5">
    <rdf:RDF>
      <cc:Work
         rdf:about="">
        <dc:format>image/svg+xml</dc:format>
        <dc:type
           rdf:resource="http://purl.org/dc/dcmitype/StillImage" />
        <dc:title></dc:title>
      </cc:Work>
    </rdf:RDF>
  </metadata>
  <g
     inkscape:label="Layer 1"
     inkscape:groupmode="layer"
     id="layer1"
     transform="translate(239.259,51.267199)">
    <rect
       ry="2.7093301"
       y="-51.267117"
       x="-239.25891"
       height="135.46651"
       width="135.46651"
       id="rect5447"
       style="fill:#ffffff;fill-opacity:1;stroke:none;stroke-width:16.69132805;stroke-linejoin:round;stroke-miterlimit:4;stroke-dasharray:none;stroke-opacity:1" />
    <path
       style="fill:url(#linearGradient5812);fill-opacity:1;stroke:none;stroke-width:40.19842529;stroke-linejoin:round;stroke-miterlimit:4;stroke-dasharray:none;stroke-opacity:1"
       d="M 123.74414 0 L 174.74219 50.998047 C 176.34183 52.597687 176.34176 55.173843 174.74219 56.773438 L 56.773438 174.74219 C 55.173866 176.34177 52.597694 176.34183 50.998047 174.74219 L 0 123.74414 L 0 140.24219 L 12.224609 152.46875 C 12.453271 152.69726 12.452968 153.06446 12.224609 153.29297 L 0 165.51758 L 0 189.74023 L 159.89258 349.63281 L 162.36719 352.10742 L 322.25977 512 L 346.48242 512 L 358.70703 499.77539 C 358.93569 499.54684 359.30469 499.54688 359.5332 499.77539 L 371.75781 512 L 388.25586 512 L 337.25781 461.00195 C 335.65824 459.40235 335.65824 456.82615 337.25781 455.22656 L 455.22656 337.25781 C 456.82613 335.65823 459.40234 335.65821 461.00195 337.25781 L 512 388.25586 L 512 371.75781 L 499.77539 359.53125 C 499.54673 359.30274 499.54673 358.93553 499.77539 358.70703 L 512 346.48242 L 512 322.25977 L 352.10742 162.36719 L 349.63281 159.89258 L 189.74023 0 L 165.51758 0 L 153.29297 12.224609 C 153.06431 12.45312 152.69734 12.453146 152.46875 12.224609 L 140.24219 0 L 123.74414 0 z M 185.87891 12.878906 C 186.02798 12.878889 186.17672 12.936483 186.29102 13.050781 L 201.96484 28.724609 C 202.19351 28.953384 202.19351 29.320325 201.96484 29.548828 L 186.29102 45.222656 C 186.06235 45.451166 185.69572 45.451575 185.4668 45.222656 L 169.79102 29.548828 C 169.56235 29.320318 169.56232 28.953108 169.79102 28.724609 L 185.4668 13.050781 C 185.58113 12.936526 185.72983 12.878924 185.87891 12.878906 z M 218.87695 45.876953 C 219.026 45.876906 219.17462 45.934384 219.28906 46.048828 L 234.96289 61.722656 C 235.19155 61.951431 235.19155 62.318372 234.96289 62.546875 L 219.28906 78.220703 C 219.0604 78.449213 218.69373 78.449595 218.46484 78.220703 L 202.79102 62.546875 C 202.56235 62.3181 202.56235 61.951155 202.79102 61.722656 L 218.46484 46.048828 C 218.57917 45.934573 218.72791 45.877 218.87695 45.876953 z M 194.12891 72.072266 C 195.17268 72.072258 196.21584 72.471691 197.01562 73.271484 L 306.73438 182.99219 C 308.33395 184.59177 308.33398 187.16603 306.73438 188.76562 L 188.76562 306.73438 C 187.16605 308.33396 184.5918 308.33397 182.99219 306.73438 L 73.271484 197.01562 C 71.671913 195.41604 71.671913 192.83982 73.271484 191.24023 L 191.24023 73.271484 C 192.04002 72.471687 193.08513 72.072273 194.12891 72.072266 z M 251.875 78.875 C 252.02408 78.874989 252.17278 78.93255 252.28711 79.046875 L 267.96289 94.720703 C 268.19117 94.949213 268.18926 95.316419 267.96094 95.544922 L 252.28711 111.2207 C 252.05845 111.44921 251.69148 111.44927 251.46289 111.2207 L 235.78906 95.544922 C 235.56078 95.316676 235.56044 94.949198 235.78906 94.720703 L 251.46289 79.046875 C 251.57722 78.93262 251.72592 78.875011 251.875 78.875 z M 284.87305 111.87305 C 285.02212 111.87303 285.17086 111.93062 285.28516 112.04492 L 300.96094 127.71875 C 301.1896 127.94726 301.1896 128.31642 300.96094 128.54492 L 285.28516 144.21875 C 285.05649 144.44726 284.68979 144.44764 284.46094 144.21875 L 268.78711 128.54492 C 268.55845 128.31641 268.55845 127.94725 268.78711 127.71875 L 284.46094 112.04492 C 284.57527 111.93067 284.72397 111.87306 284.87305 111.87305 z M 317.87109 144.87109 C 318.02014 144.87105 318.17071 144.92852 318.28516 145.04297 L 333.95898 160.7168 C 334.18765 160.94557 334.18765 161.31447 333.95898 161.54297 L 318.28516 177.2168 C 318.05649 177.44531 317.68787 177.44569 317.45898 177.2168 L 301.78516 161.54297 C 301.55649 161.31419 301.55649 160.9453 301.78516 160.7168 L 317.45898 145.04297 C 317.57332 144.92871 317.72205 144.87114 317.87109 144.87109 z M 29.136719 169.62109 C 29.285793 169.62108 29.434535 169.67672 29.548828 169.79102 L 45.222656 185.4668 C 45.451318 185.69557 45.45128 186.06251 45.222656 186.29102 L 29.548828 201.96484 C 29.320167 202.19339 28.953498 202.19375 28.724609 201.96484 L 13.050781 186.29102 C 12.82212 186.06251 12.82212 185.6953 13.050781 185.4668 L 28.724609 169.79102 C 28.83894 169.67674 28.987645 169.62111 29.136719 169.62109 z M 350.86914 177.86914 C 351.01819 177.86909 351.16878 177.92658 351.2832 178.04102 L 366.95703 193.71484 C 367.18569 193.94335 367.18569 194.31251 366.95703 194.54102 L 351.2832 210.21484 C 351.05454 210.44335 350.68588 210.44371 350.45703 210.21484 L 334.7832 194.54102 C 334.55492 194.31277 334.5545 193.94334 334.7832 193.71484 L 350.45703 178.04102 C 350.57136 177.92676 350.72009 177.86919 350.86914 177.86914 z M 62.134766 202.61914 C 62.283811 202.6191 62.432431 202.67657 62.546875 202.79102 L 78.220703 218.46484 C 78.449365 218.69362 78.449365 219.06056 78.220703 219.28906 L 62.546875 234.96289 C 62.318214 235.19144 61.951544 235.19178 61.722656 234.96289 L 46.048828 219.28906 C 45.820167 219.06029 45.820167 218.69335 46.048828 218.46484 L 61.722656 202.79102 C 61.836987 202.67674 61.98572 202.61918 62.134766 202.61914 z M 326.12109 204.06445 C 327.16488 204.06445 328.20994 204.46581 329.00977 205.26562 L 438.72852 314.98438 C 440.32813 316.58398 440.32809 319.16018 438.72852 320.75977 L 320.75977 438.72852 C 319.16019 440.32809 316.58398 440.32812 314.98438 438.72852 L 205.26562 329.00781 C 203.66598 327.40817 203.66605 324.83396 205.26562 323.23438 L 323.23438 205.26562 C 324.03416 204.46583 325.07731 204.06446 326.12109 204.06445 z M 383.86914 210.86914 C 384.01818 210.86909 384.16682 210.92464 384.28125 211.03906 L 399.95508 226.71484 C 400.18374 226.94362 400.1837 227.31056 399.95508 227.53906 L 384.28125 243.21289 C 384.05259 243.4414 383.6837 243.44151 383.45508 243.21289 L 367.78125 227.53906 C 367.55297 227.31082 367.55255 226.94334 367.78125 226.71484 L 383.45508 211.03906 C 383.56941 210.92481 383.7201 210.86919 383.86914 210.86914 z M 95.132812 235.61719 C 95.281896 235.61718 95.430591 235.67474 95.544922 235.78906 L 111.2207 251.46289 C 111.44936 251.6914 111.44936 252.05861 111.2207 252.28711 L 95.544922 267.96094 C 95.31626 268.18945 94.949289 268.18953 94.720703 267.96094 L 79.046875 252.28711 C 78.818592 252.05886 78.818214 251.6914 79.046875 251.46289 L 94.720703 235.78906 C 94.835034 235.67479 94.983729 235.61719 95.132812 235.61719 z M 416.86719 243.86719 C 417.01624 243.86714 417.16487 243.92462 417.2793 244.03906 L 432.95312 259.71289 C 433.18179 259.94148 433.18179 260.30861 432.95312 260.53711 L 417.2793 276.21094 C 417.05064 276.43945 416.68374 276.43956 416.45508 276.21094 L 400.7793 260.53711 C 400.55064 260.30833 400.55064 259.94139 400.7793 259.71289 L 416.45508 244.03906 C 416.56941 243.92481 416.71814 243.86723 416.86719 243.86719 z M 128.13086 268.61523 C 128.27994 268.61522 128.43063 268.67281 128.54492 268.78711 L 144.21875 284.46094 C 144.44741 284.68945 144.44741 285.05665 144.21875 285.28516 L 128.54492 300.96094 C 128.31626 301.18949 127.94764 301.18982 127.71875 300.96094 L 112.04492 285.28516 C 111.81626 285.05665 111.81622 284.68944 112.04492 284.46094 L 127.71875 268.78711 C 127.83308 268.67284 127.98178 268.61525 128.13086 268.61523 z M 449.86523 276.86523 C 450.01432 276.86523 450.16307 276.92286 450.27734 277.03711 L 465.95117 292.71094 C 466.17983 292.93952 466.17987 293.30665 465.95117 293.53516 L 450.27734 309.20898 C 450.04868 309.43749 449.68164 309.43749 449.45312 309.20898 L 433.7793 293.53516 C 433.55064 293.30661 433.5506 292.93944 433.7793 292.71094 L 449.45312 277.03711 C 449.56746 276.92285 449.71615 276.86524 449.86523 276.86523 z M 161.12891 301.61328 C 161.27795 301.61324 161.42852 301.67071 161.54297 301.78516 L 177.2168 317.45898 C 177.44546 317.68776 177.44546 318.05665 177.2168 318.28516 L 161.54297 333.95898 C 161.31431 334.18753 160.94569 334.18787 160.7168 333.95898 L 145.04297 318.28516 C 144.81431 318.05638 144.81427 317.68749 145.04297 317.45898 L 160.7168 301.78516 C 160.83113 301.67088 160.97986 301.61332 161.12891 301.61328 z M 482.86328 309.86328 C 483.01237 309.86328 483.16112 309.9209 483.27539 310.03516 L 498.94922 325.70898 C 499.17788 325.93753 499.17788 326.3047 498.94922 326.5332 L 483.27539 342.20898 C 483.04673 342.43749 482.67964 342.43749 482.45117 342.20898 L 466.77734 326.5332 C 466.54868 326.30466 466.54868 325.93748 466.77734 325.70898 L 482.45117 310.03516 C 482.5655 309.9209 482.71419 309.86328 482.86328 309.86328 z M 194.12891 334.61133 C 194.27795 334.61128 194.42659 334.66877 194.54102 334.7832 L 210.21484 350.45703 C 210.44351 350.68554 210.44351 351.0547 210.21484 351.2832 L 194.54102 366.95703 C 194.31235 367.18558 193.94369 367.18589 193.71484 366.95703 L 178.04102 351.2832 C 177.81273 351.05496 177.81232 350.68553 178.04102 350.45703 L 193.71484 334.7832 C 193.82917 334.66893 193.97987 334.61137 194.12891 334.61133 z M 227.12695 367.60938 C 227.27599 367.60933 227.42464 367.66683 227.53906 367.78125 L 243.21289 383.45508 C 243.44155 383.68385 243.44151 384.05274 243.21289 384.28125 L 227.53906 399.95508 C 227.3104 400.18363 226.94347 400.18372 226.71484 399.95508 L 211.03906 384.28125 C 210.81078 384.053 210.8107 383.68358 211.03906 383.45508 L 226.71484 367.78125 C 226.82917 367.66698 226.97791 367.60942 227.12695 367.60938 z M 260.125 400.60938 C 260.27405 400.60933 260.42268 400.66485 260.53711 400.7793 L 276.21094 416.45508 C 276.4396 416.68366 276.4396 417.05079 276.21094 417.2793 L 260.53711 432.95312 C 260.30845 433.18164 259.94151 433.18175 259.71289 432.95312 L 244.03906 417.2793 C 243.8104 417.05052 243.8104 416.68358 244.03906 416.45508 L 259.71289 400.7793 C 259.82722 400.66502 259.97595 400.60942 260.125 400.60938 z M 293.12305 433.60742 C 293.27214 433.60742 293.42088 433.66503 293.53516 433.7793 L 309.20898 449.45312 C 309.43765 449.68171 309.43731 450.04884 309.20898 450.27734 L 293.53516 465.95117 C 293.30649 466.17972 292.93945 466.17967 292.71094 465.95117 L 277.03711 450.27734 C 276.80845 450.0488 276.80841 449.68163 277.03711 449.45312 L 292.71094 433.7793 C 292.82527 433.66502 292.97396 433.60742 293.12305 433.60742 z M 326.12109 466.60547 C 326.27018 466.60547 326.41893 466.66307 326.5332 466.77734 L 342.20898 482.45117 C 342.43765 482.67972 342.43765 483.04689 342.20898 483.27539 L 326.5332 498.94922 C 326.30454 499.17773 325.93746 499.17772 325.70898 498.94922 L 310.03516 483.27539 C 309.80649 483.04684 309.80649 482.67967 310.03516 482.45117 L 325.70898 466.77734 C 325.82332 466.66307 325.97201 466.60547 326.12109 466.60547 z "
       transform="matrix(0.26458334,0,0,0.26458334,-239.259,-51.267199)"
       id="rect5772" />
  </g>
</svg>

<svg width="512" height="512" version="1.1" viewBox="0 0 135.46667 135.46667" xmlns="http://www.w3.org/2000/svg" xmlns:xlink="http://www.w3.org/1999/xlink">
	<defs>
		<linearGradient id="linearGradient5812" x1="11.238" x2="7.4306" y1="1137.9" y2="1778.3" gradientTransform="matrix(-.67463 .67463 -.74796 -.74796 1419.8 1401.7)" gradientUnits="userSpaceOnUse">
			<stop stop-color="#ff2a2a" offset="0"/>
			<stop stop-color="#ff1b1b" offset="1"/>
		</linearGradient>
	</defs>
	<g transform="translate(239.26 51.267)">
		<rect x="-239.26" y="-51.267" width="135.47" height="135.47" ry="2.7093" fill="#fff"/>
		<path transform="matrix(.26458 0 0 .26458 -239.26 -51.267)" d="m123.74 0l50.998 50.998c1.5996 1.5996 1.5996 4.1758 0 5.7754l-117.97 117.97c-1.5996 1.5996-4.1757 1.5996-5.7754 0l-50.998-50.998v16.498l12.225 12.227c0.22866 0.22851 0.22836 0.59571 0 0.82422l-12.225 12.225v24.223l159.89 159.89 2.4746 2.4746 159.89 159.89h24.223l12.225-12.225c0.22866-0.22855 0.59766-0.22851 0.82617 0l12.225 12.225h16.498l-50.998-50.998c-1.5996-1.5996-1.5996-4.1758 0-5.7754l117.97-117.97c1.5996-1.5996 4.1758-1.5996 5.7754 0l50.998 50.998v-16.498l-12.225-12.227c-0.22866-0.22851-0.22866-0.59572 0-0.82422l12.225-12.225v-24.223l-159.89-159.89-2.4746-2.4746-159.89-159.89h-24.223l-12.225 12.225c-0.22866 0.22851-0.59563 0.22854-0.82422 0l-12.227-12.225h-16.498zm62.135 12.879c0.14907-1.7e-5 0.29781 0.057577 0.41211 0.17188l15.674 15.674c0.22867 0.22878 0.22867 0.59572 0 0.82422l-15.674 15.674c-0.22867 0.22851-0.5953 0.22892-0.82422 0l-15.676-15.674c-0.22867-0.22851-0.2287-0.59572 0-0.82422l15.676-15.674c0.11433-0.11426 0.26303-0.17186 0.41211-0.17188zm32.998 32.998c0.14905-4.7e-5 0.29767 0.057431 0.41211 0.17188l15.674 15.674c0.22866 0.22878 0.22866 0.59572 0 0.82422l-15.674 15.674c-0.22866 0.22851-0.59533 0.22889-0.82422 0l-15.674-15.674c-0.22867-0.22878-0.22867-0.59572 0-0.82422l15.674-15.674c0.11433-0.11426 0.26307-0.17183 0.41211-0.17188zm-24.748 26.195c1.0438-8e-6 2.0869 0.39942 2.8867 1.1992l109.72 109.72c1.5996 1.5996 1.5996 4.1738 0 5.7734l-117.97 117.97c-1.5996 1.5996-4.1738 1.5996-5.7734 0l-109.72-109.72c-1.5996-1.5996-1.5996-4.1758 0-5.7754l117.97-117.97c0.79979-0.7998 1.8449-1.1992 2.8887-1.1992zm57.746 6.8027c0.14908-1.1e-5 0.29778 0.05755 0.41211 0.17188l15.676 15.674c0.22828 0.22851 0.22637 0.59572-0.00195 0.82422l-15.674 15.676c-0.22866 0.22851-0.59563 0.22857-0.82422 0l-15.674-15.676c-0.22828-0.22825-0.22862-0.59572 0-0.82422l15.674-15.674c0.11433-0.11426 0.26303-0.17186 0.41211-0.17188zm32.998 32.998c0.14907-2e-5 0.29781 0.05757 0.41211 0.17187l15.676 15.674c0.22866 0.22851 0.22866 0.59767 0 0.82617l-15.676 15.674c-0.22867 0.22851-0.59537 0.22889-0.82422 0l-15.674-15.674c-0.22866-0.22851-0.22866-0.59767 0-0.82617l15.674-15.674c0.11433-0.11425 0.26303-0.17186 0.41211-0.17187zm32.998 32.998c0.14905-4e-5 0.29962 0.05743 0.41407 0.17188l15.674 15.674c0.22867 0.22877 0.22867 0.59767 0 0.82617l-15.674 15.674c-0.22867 0.22851-0.59729 0.22889-0.82618 0l-15.674-15.674c-0.22867-0.22878-0.22867-0.59767 0-0.82617l15.674-15.674c0.11434-0.11426 0.26307-0.17183 0.41211-0.17188zm-288.73 24.75c0.14907-1e-5 0.29782 0.05563 0.41211 0.16993l15.674 15.676c0.22866 0.22877 0.22862 0.59571 0 0.82422l-15.674 15.674c-0.22866 0.22855-0.59533 0.22891-0.82422 0l-15.674-15.674c-0.22866-0.22851-0.22866-0.59572 0-0.82422l15.674-15.676c0.11433-0.11428 0.26304-0.16991 0.41211-0.16993zm321.73 8.248c0.14905-5e-5 0.29964 0.05744 0.41406 0.17188l15.674 15.674c0.22866 0.22851 0.22866 0.59767 0 0.82618l-15.674 15.674c-0.22866 0.22851-0.59732 0.22887-0.82617 0l-15.674-15.674c-0.22828-0.22825-0.2287-0.59768 0-0.82618l15.674-15.674c0.11433-0.11426 0.26306-0.17183 0.41211-0.17188zm-288.73 24.75c0.14904-4e-5 0.29766 0.05743 0.41211 0.17188l15.674 15.674c0.22866 0.22878 0.22866 0.59572 0 0.82422l-15.674 15.674c-0.22866 0.22855-0.59533 0.22889-0.82422 0l-15.674-15.674c-0.22866-0.22877-0.22866-0.59571 0-0.82422l15.674-15.674c0.11433-0.11428 0.26306-0.17184 0.41211-0.17188zm263.99 1.4453c1.0438 0 2.0888 0.40136 2.8887 1.2012l109.72 109.72c1.5996 1.5996 1.5996 4.1758 0 5.7754l-117.97 117.97c-1.5996 1.5996-4.1758 1.5996-5.7754 0l-109.72-109.72c-1.5996-1.5996-1.5996-4.1738 0-5.7734l117.97-117.97c0.79978-0.79979 1.8429-1.2012 2.8867-1.2012zm57.748 6.8047c0.14904-5e-5 0.29768 0.0555 0.41211 0.16992l15.674 15.676c0.22866 0.22878 0.22862 0.59572 0 0.82422l-15.674 15.674c-0.22866 0.22851-0.59755 0.22862-0.82617 0l-15.674-15.674c-0.22828-0.22824-0.2287-0.59572 0-0.82422l15.674-15.676c0.11433-0.11425 0.26502-0.16987 0.41406-0.16992zm-288.74 24.748c0.14908-1e-5 0.29778 0.05755 0.41211 0.17187l15.676 15.674c0.22866 0.22851 0.22866 0.59572 0 0.82422l-15.676 15.674c-0.22866 0.22851-0.59563 0.22859-0.82422 0l-15.674-15.674c-0.22828-0.22825-0.22866-0.59571 0-0.82422l15.674-15.674c0.11433-0.11427 0.26303-0.17187 0.41211-0.17187zm321.73 8.25c0.14905-5e-5 0.29768 0.05743 0.41211 0.17187l15.674 15.674c0.22867 0.22859 0.22867 0.59572 0 0.82422l-15.674 15.674c-0.22866 0.22851-0.59556 0.22862-0.82422 0l-15.676-15.674c-0.22866-0.22878-0.22866-0.59572 0-0.82422l15.676-15.674c0.11433-0.11425 0.26306-0.17183 0.41211-0.17187zm-288.74 24.748c0.14908-1e-5 0.29977 0.05758 0.41406 0.17188l15.674 15.674c0.22866 0.22851 0.22866 0.59571 0 0.82422l-15.674 15.676c-0.22866 0.22855-0.59728 0.22888-0.82617 0l-15.674-15.676c-0.22866-0.22851-0.2287-0.59572 0-0.82422l15.674-15.674c0.11433-0.11427 0.26303-0.17186 0.41211-0.17188zm321.73 8.25c0.14909 0 0.29784 0.05763 0.41211 0.17188l15.674 15.674c0.22866 0.22858 0.2287 0.59571 0 0.82422l-15.674 15.674c-0.22866 0.22851-0.5957 0.22851-0.82422 0l-15.674-15.674c-0.22866-0.22855-0.2287-0.59572 0-0.82422l15.674-15.674c0.11434-0.11426 0.26303-0.17187 0.41211-0.17188zm-288.74 24.748c0.14904-4e-5 0.29961 0.05743 0.41406 0.17188l15.674 15.674c0.22866 0.22878 0.22866 0.59767 0 0.82618l-15.674 15.674c-0.22866 0.22855-0.59728 0.22889-0.82617 0l-15.674-15.674c-0.22866-0.22878-0.2287-0.59767 0-0.82618l15.674-15.674c0.11433-0.11428 0.26306-0.17184 0.41211-0.17188zm321.73 8.25c0.14909 0 0.29784 0.05762 0.41211 0.17188l15.674 15.674c0.22866 0.22855 0.22866 0.59572 0 0.82422l-15.674 15.676c-0.22866 0.22851-0.59575 0.22851-0.82422 0l-15.674-15.676c-0.22866-0.22854-0.22866-0.59572 0-0.82422l15.674-15.674c0.11433-0.11426 0.26302-0.17188 0.41211-0.17188zm-288.73 24.748c0.14904-5e-5 0.29768 0.05744 0.41211 0.17187l15.674 15.674c0.22867 0.22851 0.22867 0.59767 0 0.82617l-15.674 15.674c-0.22867 0.22855-0.59733 0.22886-0.82618 0l-15.674-15.674c-0.22829-0.22824-0.2287-0.59767 0-0.82617l15.674-15.674c0.11433-0.11427 0.26503-0.17183 0.41407-0.17187zm32.998 32.998c0.14904-5e-5 0.29769 0.05745 0.41211 0.17187l15.674 15.674c0.22866 0.22877 0.22862 0.59766 0 0.82617l-15.674 15.674c-0.22866 0.22855-0.59559 0.22864-0.82422 0l-15.676-15.674c-0.22828-0.22825-0.22836-0.59767 0-0.82617l15.676-15.674c0.11433-0.11427 0.26307-0.17183 0.41211-0.17187zm32.998 33c0.14905-5e-5 0.29768 0.05547 0.41211 0.16992l15.674 15.676c0.22866 0.22858 0.22866 0.59571 0 0.82422l-15.674 15.674c-0.22866 0.22852-0.5956 0.22863-0.82422 0l-15.674-15.674c-0.22866-0.22878-0.22866-0.59572 0-0.82422l15.674-15.676c0.11433-0.11428 0.26306-0.16988 0.41211-0.16992zm32.998 32.998c0.14909 0 0.29783 0.05761 0.41211 0.17188l15.674 15.674c0.22867 0.22859 0.22833 0.59572 0 0.82422l-15.674 15.674c-0.22867 0.22855-0.59571 0.2285-0.82422 0l-15.674-15.674c-0.22866-0.22854-0.2287-0.59571 0-0.82422l15.674-15.674c0.11433-0.11428 0.26302-0.17188 0.41211-0.17188zm32.998 32.998c0.14909 0 0.29784 0.0576 0.41211 0.17187l15.676 15.674c0.22867 0.22855 0.22867 0.59572 0 0.82422l-15.676 15.674c-0.22866 0.22851-0.59574 0.2285-0.82422 0l-15.674-15.674c-0.22867-0.22855-0.22867-0.59572 0-0.82422l15.674-15.674c0.11434-0.11427 0.26303-0.17187 0.41211-0.17187z" fill="url(#linearGradient5812)"/>
	</g>
</svg>
